icon_installer/data/icons/scalable/actions/show-drinks-symbolic.svg

<?xml version="1.0" encoding="UTF-8"?>
<svg height="16px" viewBox="0 0 16 16" width="16px" xmlns="http://www.w3.org/2000/svg">
    <g fill="#222222">
        <path d="m 1 2 v 4 c 0 1.871094 1.269531 3.433594 3 3.875 v 4.125 h -1 s -1 0 -1 1 v 1 h 6 v -1 c 0 -1 -1 -1 -1 -1 h -1 v -4.125 c 1.730469 -0.441406 3 -2.003906 3 -3.875 v -4 z m 0 0"/>
        <path d="m 12 0 v 4.046875 c -1.105469 0.214844 -1.945312 1.160156 -1.996094 2.316406 h -0.003906 v 9.636719 h 6 v -9.636719 h -0.003906 c -0.050782 -1.15625 -0.890625 -2.101562 -1.996094 -2.316406 v -4.046875 z m 0 0"/>
    </g>
</svg>

<svg xmlns="http://www.w3.org/2000/svg" width="16" height="16"><path fill="#222" d="M1 2v4a3.988 3.988 0 0 0 3 3.875V14H3s-1 0-1 1v1h6v-1c0-1-1-1-1-1H6V9.875C7.73 9.434 9 7.871 9 6V2zm11-2v4.047a2.47 2.47 0 0 0-1.996 2.316H10V16h6V6.363h-.004A2.47 2.47 0 0 0 14 4.047V0zm0 0"/></svg>
